X: 35
T:Dan R. MacDonald's Favorite
M:4/4
L:1/8
C:D. A. Beaton
R:Strathspey
O:~
K:D
G|"D"F<AA>B d>e f<d|"G"g>fe>d "A"e<EE>G|"D"F<AA>B d>c B>A|
"G"B<GA<F "A"E2 E>G|!
"D"F<AA>B d>e f<d|"G" g>fe>d "A"e<EE>G|"D"F<AA>B d>cB>A|
"G"B<GA<F "A"E2 "D"D||!
f|"D"d>ef>d "G"g>f e<f|"D"d>e f<d "A"e<EE>f|"D"d>ef>d "G"g>f e<b|
"A"a>f e<f {A}"D"d2 d>f|!
"D"d>ef>d "G"g>f e<g|"D"f>e d<f "A"e<EE>g|"D"f<d"A"e<c "D"d>cB>A|
"G"B<GA<F "A"E2 "D"D||
